X:539
T:The Fenian Stronghold
M:3/4
L:1/8
B:O'Neill's 539
N:"With feeling" "collected by F. O'Neill"
Z:Transcribed by Dave Wooldridge
K:Dphr
F2 \
| B2 (Bc) (dB) | c2 f3 e | d2 B2 B2 | A2 F2 F2 |
B2 (Bc) (dB) | c2 f3 e | d2 B2 {d}c2 | B4 ||
c2 \
| d2 (d=e) (fd) | c2 A2 F2 | G2 (GA) (AG) | F2 D2 A2 |
d2 (d=e) (fd) | c2 A2 F2 | (G2 G)F (=EF) | D4 ||


